X:1
T:Our Ship She Lies in Harbour
M:4/4
L:1/4
K:D
 D| E3/2 D/2 C D| E- F DE/2-F/2| A GG/2-A/2 B| A3| A| B3/2 A/2 G B|\
 A3/2 G/2 F D| AE/2-F/2 G F| D3|E/2-F/2| G GG/2-A/2 B| A3 A| B3/2 A/2 G B|\
 AA/2-G/2 F|D/2-F/2| AD/2-F/2 G F| D3||

